src/assets/outline/Bag2.svg

<svg width="24" height="24" viewBox="0 0 24 24"  xmlns="http://www.w3.org/2000/svg">
<path d="M16.5 8.6303C16.09 8.6303 15.75 8.2903 15.75 7.8803V6.5003C15.75 5.4503 15.3 4.4303 14.52 3.7203C13.73 3.0003 12.71 2.6703 11.63 2.7703C9.83 2.9403 8.25 4.7803 8.25 6.7003V7.6703C8.25 8.0803 7.91 8.4203 7.5 8.4203C7.09 8.4203 6.75 8.0803 6.75 7.6703V6.6903C6.75 4.0003 8.92 1.5203 11.49 1.2703C12.99 1.1303 14.43 1.6003 15.53 2.6103C16.62 3.6003 17.25 5.0203 17.25 6.5003V7.8803C17.25 8.2903 16.91 8.6303 16.5 8.6303Z" />
<path d="M14.9998 22.75H8.99982C4.37982 22.75 3.51982 20.6 3.29982 18.51L2.54982 12.52C2.43982 11.44 2.39982 9.89 3.44982 8.73C4.34982 7.73 5.83982 7.25 7.99982 7.25H15.9998C18.1698 7.25 19.6598 7.74 20.5498 8.73C21.5898 9.89 21.5598 11.44 21.4498 12.5L20.6998 18.51C20.4798 20.6 19.6198 22.75 14.9998 22.75ZM7.99982 8.75C6.30982 8.75 5.14982 9.08 4.55982 9.74C4.06982 10.28 3.90982 11.11 4.03982 12.35L4.78982 18.34C4.95982 19.94 5.39982 21.26 8.99982 21.26H14.9998C18.5998 21.26 19.0398 19.95 19.2098 18.36L19.9598 12.35C20.0898 11.13 19.9298 10.3 19.4398 9.75C18.8498 9.08 17.6898 8.75 15.9998 8.75H7.99982Z" />
<path d="M15.4202 13.1504C14.8602 13.1504 14.4102 12.7004 14.4102 12.1504C14.4102 11.6004 14.8602 11.1504 15.4102 11.1504C15.9602 11.1504 16.4102 11.6004 16.4102 12.1504C16.4102 12.7004 15.9702 13.1504 15.4202 13.1504Z" />
<path d="M8.42016 13.1504C7.86016 13.1504 7.41016 12.7004 7.41016 12.1504C7.41016 11.6004 7.86016 11.1504 8.41016 11.1504C8.96016 11.1504 9.41016 11.6004 9.41016 12.1504C9.41016 12.7004 8.97016 13.1504 8.42016 13.1504Z" />
</svg>

<?xml version="1.0" encoding="UTF-8"?>
<svg width="24" height="24" viewBox="0 0 24 24" xmlns="http://www.w3.org/2000/svg">
 <path d="m16.5 8.6303c-0.41 0-0.75-0.34-0.75-0.75v-1.38c0-1.05-0.45-2.07-1.23-2.78-0.79-0.72-1.81-1.05-2.89-0.95-1.8 0.17-3.38 2.01-3.38 3.93v0.97c0 0.41-0.34 0.75-0.75 0.75s-0.75-0.34-0.75-0.75v-0.98c0-2.69 2.17-5.17 4.74-5.42 1.5-0.14 2.94 0.33 4.04 1.34 1.09 0.99 1.72 2.41 1.72 3.89v1.38c0 0.41-0.34 0.75-0.75 0.75z"/>
 <path d="m15 22.75h-6c-4.62 0-5.48-2.15-5.7-4.24l-0.75-5.99c-0.11-1.08-0.15-2.63 0.9-3.79 0.9-1 2.39-1.48 4.55-1.48h8c2.17 0 3.66 0.49 4.55 1.48 1.04 1.16 1.01 2.71 0.9 3.77l-0.75 6.01c-0.22 2.09-1.08 4.24-5.7 4.24zm-7-14c-1.69 0-2.85 0.33-3.44 0.99-0.49 0.54-0.65 1.37-0.52 2.61l0.75 5.99c0.17 1.6 0.61 2.92 4.21 2.92h6c3.6 0 4.04-1.31 4.21-2.9l0.75-6.01c0.13-1.22-0.03-2.05-0.52-2.6-0.59-0.67-1.75-1-3.44-1h-8z"/>
 <path d="m15.42 13.15c-0.56 0-1.01-0.45-1.01-1s0.45-1 1-1 1 0.45 1 1-0.44 1-0.99 1z"/>
 <path d="m8.4202 13.15c-0.56 0-1.01-0.45-1.01-1s0.45-1 1-1 1 0.45 1 1-0.44 1-0.99 1z"/>
</svg>
